src/front_assets/svg/lang.svg

<?xml version="1.0" encoding="utf-8"?><!-- Uploaded to: SVG Repo, www.svgrepo.com, Generator: SVG Repo Mixer Tools -->
<svg width="24px" height="24px" viewBox="0 0 48 48" fill="none" xmlns="http://www.w3.org/2000/svg">
<rect width="48" height="48" fill="white" fill-opacity="0.01"/>
<path d="M17 32L19.1875 27M31 32L28.8125 27M19.1875 27L24 16L28.8125 27M19.1875 27H28.8125" stroke="#000000" stroke-width="4" stroke-linecap="round" stroke-linejoin="round"/>
<path d="M43.1999 20C41.3468 10.871 33.2758 4 23.5999 4C13.9241 4 5.85308 10.871 4 20L10 18" stroke="#000000" stroke-width="4" stroke-linecap="round" stroke-linejoin="round"/>
<path d="M4 28C5.85308 37.129 13.9241 44 23.5999 44C33.2758 44 41.3468 37.129 43.1999 28L38 30" stroke="#000000" stroke-width="4" stroke-linecap="round" stroke-linejoin="round"/>
</svg>

<svg xmlns="http://www.w3.org/2000/svg" width="24" height="24" fill="none" viewBox="0 0 48 48"><path fill="#fff" fill-opacity=".01" d="M0 0h48v48H0z"/><path stroke="#000" stroke-linecap="round" stroke-linejoin="round" stroke-width="4" d="m17 32 2.188-5M31 32l-2.187-5m-9.625 0L24 16l4.813 11m-9.625 0h9.625"/><path stroke="#000" stroke-linecap="round" stroke-linejoin="round" stroke-width="4" d="M43.2 20c-1.853-9.129-9.924-16-19.6-16S5.853 10.871 4 20l6-2M4 28c1.853 9.129 9.924 16 19.6 16s17.747-6.871 19.6-16L38 30"/></svg>
